packages/astro-components-stencil/src/icons/signal-cellular-alt.svg

<svg xmlns="http://www.w3.org/2000/svg" viewBox="0 0 24 24"><g xmlns="http://www.w3.org/2000/svg" id="signal-cellular-alt" fill-rule="nonzero">
            <path d="M18.5 4c.83 0 1.5.67 1.5 1.5v13c0 .83-.67 1.5-1.5 1.5s-1.5-.67-1.5-1.5v-13c0-.83.67-1.5 1.5-1.5zm-12 10c.83 0 1.5.67 1.5 1.5v3c0 .83-.67 1.5-1.5 1.5S5 19.33 5 18.5v-3c0-.83.67-1.5 1.5-1.5zm6-5c.83 0 1.5.67 1.5 1.5v8c0 .83-.67 1.5-1.5 1.5s-1.5-.67-1.5-1.5v-8c0-.83.67-1.5 1.5-1.5z"/>
        </g></svg>

<svg width="24" height="24" viewBox="0 0 24 24" fill="none" xmlns="http://www.w3.org/2000/svg">
<path fill-rule="evenodd" clip-rule="evenodd" d="M18.5 4C19.33 4 20 4.67 20 5.5V18.5C20 19.33 19.33 20 18.5 20C17.67 20 17 19.33 17 18.5V5.5C17 4.67 17.67 4 18.5 4ZM6.5 14C7.33 14 8 14.67 8 15.5V18.5C8 19.33 7.33 20 6.5 20C5.67 20 5 19.33 5 18.5V15.5C5 14.67 5.67 14 6.5 14ZM14 10.5C14 9.67 13.33 9 12.5 9C11.67 9 11 9.67 11 10.5V18.5C11 19.33 11.67 20 12.5 20C13.33 20 14 19.33 14 18.5V10.5Z" fill="black"/>
</svg>
